swiss/communes/0242.svg

<?xml version="1.0" encoding="UTF-8" standalone="no"?>
<!-- Created with Inkscape (http://www.inkscape.org/) -->
<svg
   xmlns:svg="http://www.w3.org/2000/svg"
   xmlns="http://www.w3.org/2000/svg"
   version="1.0"
   width="235.75723"
   height="276.15289"
   id="svg2780">
  <defs
     id="defs2782" />
  <g
     transform="translate(-6.1370082,-804.33064)"
     id="layer1">
    <path
       d="M 7.1370082,805.33065 L 11.387136,983.84879 C 14.422929,1111.3618 233.6083,1111.3618 236.64411,983.84879 L 240.89424,805.33065 L 7.1370082,805.33065 z"
       id="path3282"
       style="fill:#ffffff;fill-opacity:1;fill-rule:evenodd;stroke:none;stroke-width:2;stroke-linecap:butt;stroke-miterlimit:4;stroke-dashoffset:0;stroke-opacity:1" />
    <g
       transform="matrix(1.1016102,0,0,1.1016102,-14.026036,-92.408916)"
       id="g3305">
      <path
         d="M 122.85891,14.452919 L 139.00283,59.061609 L 186.41696,60.630547 L 148.98032,89.769168 L 162.13994,135.34751 L 122.85891,108.74748 L 83.577873,135.34751 L 96.7375,89.769167 L 59.300861,60.630543 L 106.71499,59.061608 L 122.85891,14.452919 z"
         transform="matrix(0.848724,0,0,0.8487245,21.035684,925.99407)"
         id="path16632"
         style="fill:#1b7c2b;fill-opacity:1;fill-rule:evenodd;stroke:#000000;stroke-width:1.06871843;stroke-linecap:butt;stroke-linejoin:round;stroke-miterlimit:4;stroke-dasharray:none;stroke-opacity:1" />
      <path
         d="M 116.40006,1009.1204 C 112.17465,1006.0788 97.431205,1012.9426 97.278956,1020.1081 C 97.128745,1027.1779 81.230537,1030.6386 76.173913,1007.8403 C 71.097028,984.95057 89.838468,981.86901 97.954808,989.60208 C 106.11917,997.38088 108.97844,993.31806 109.40012,992.29414 C 109.783,991.36448 108.1819,982.59384 98.966176,982.99807 C 89.755138,983.4021 77.981879,970.10668 94.93266,956.72608 C 111.71868,943.47551 121.0957,952.9121 121.72215,959.84684 C 122.34943,966.79082 119.41843,980.20689 124.76936,979.98004 C 130.02463,979.75725 130.47986,970.46488 130.28962,959.43725 C 130.10107,948.50543 143.10574,948.75381 152.62417,955.52604 C 162.20634,962.34364 166.86152,970.71348 161.19692,976.87245 C 155.57606,982.98385 137.27108,985.0731 139.7643,990.78525 C 142.24243,996.46282 156.15344,989.13032 162.74545,987.247 C 169.42601,985.33838 177.42396,993.56703 172.34481,1010.8345 C 167.29161,1028.0136 155.72805,1026.847 151.95266,1023.6406 C 148.22416,1020.474 139.97471,1005.077 135.12789,1009.1682 C 130.17786,1013.3463 144.16703,1026.6081 145.09348,1029.4363 C 146.04834,1032.3514 145.11935,1045.5785 123.29449,1043.8892 C 101.57208,1042.2077 103.9864,1029.5742 105.84933,1026.6569 C 107.685,1023.7823 120.93045,1012.3815 116.40006,1009.1204 z"
         id="path16592"
         style="color:#000000;fill:#de4221;fill-opacity:1;fill-rule:evenodd;stroke:#000000;stroke-width:0.90776211px;stroke-linecap:butt;stroke-linejoin:miter;marker:none;marker-start:none;marker-mid:none;marker-end:none;stroke-miterlimit:4;stroke-dashoffset:0;stroke-opacity:1;visibility:visible;display:inline;overflow:visible;enable-background:accumulate" />
      <path
         d="M 114.51002,1010.8164 C 110.31332,1007.5014 109.38384,1020.6797 100.46902,1023.5294 C 85.327773,1028.3698 86.453214,1009.8614 86.74452,1008.1946 C 87.019589,1006.6205 72.975663,990.52244 85.616988,985.45146 C 95.460122,981.50303 104.79826,995.57128 107.03083,990.34809 C 109.2483,985.16013 94.692258,986.47153 90.270699,980.38105 C 81.219021,967.91287 99.747212,962.67255 101.47752,962.83113 C 103.31076,962.99912 112.68778,949.14494 121.07817,955.6963 C 129.62139,962.36699 118.10597,977.78375 124.89219,978.03397 C 131.77413,978.2877 121.10772,963.50789 130.31661,956.43685 C 139.58567,949.3196 147.72159,964.16504 148.91295,964.79403 C 150.0624,965.40087 167.59933,967.78999 161.03221,978.95193 C 154.42324,990.18497 138.91746,984.46075 141.89999,989.98934 C 144.92266,995.59233 158.01273,978.55309 165.93551,987.31373 C 173.90583,996.12689 162.85629,1006.4906 162.59496,1007.834 C 162.31181,1009.2895 162.92162,1026.5689 151.44836,1024.57 C 140.06812,1022.5871 140.63882,1007.3347 136.30509,1010.6725 C 131.92541,1014.0457 148.57425,1019.9478 145.59973,1032.4878 C 142.64673,1044.9374 125.25399,1034.3178 123.51315,1035.6171 C 121.81936,1036.8814 107.1179,1041.4495 103.76759,1031.3635 C 100.44596,1021.364 118.76546,1014.178 114.51002,1010.8164 z"
         id="path4048"
         style="color:#000000;fill:#de4221;fill-opacity:1;fill-rule:evenodd;stroke:#000000;stroke-width:0.90704733;stroke-linecap:butt;stroke-linejoin:miter;marker:none;marker-start:none;marker-mid:none;marker-end:none;stroke-miterlimit:4;stroke-dasharray:none;stroke-dashoffset:0;stroke-opacity:1;visibility:visible;display:inline;overflow:visible;enable-background:accumulate" />
      <path
         d="M 123.03518,107.1987 L 118.34825,87.38807 L 98.722034,89.534166 L 116.11472,78.954811 L 108.00883,60.95235 L 123.44503,74.224578 L 138.06153,60.952349 L 130.20894,79.734393 L 147.34832,89.534165 L 127.05896,87.869878 L 123.03518,107.1987 z"
         transform="matrix(0.8486381,0,0,0.8486379,20.643136,927.37707)"
         id="path16628"
         style="fill:#000000;fill-opacity:1;fill-rule:evenodd;stroke:none;stroke-width:1.17835865pt;stroke-linecap:butt;stroke-linejoin:round;stroke-opacity:1" />
      <path
         d="M 138.72305,82.515686 A 13.925185,13.925185 0 1 1 110.87268,82.515686 A 13.925185,13.925185 0 1 1 138.72305,82.515686 z"
         transform="matrix(0.9946837,0,0,0.9946371,1.1183931,913.89839)"
         id="path16624"
         style="opacity:1;color:#000000;fill:#f7de31;fill-opacity:1;fill-rule:evenodd;stroke:#000000;stroke-width:0.91263523pt;stroke-linecap:butt;stroke-linejoin:miter;marker:none;marker-start:none;marker-mid:none;marker-end:none;stroke-miterlimit:4;stroke-dasharray:none;stroke-dashoffset:0;stroke-opacity:1;visibility:visible;display:inline;overflow:visible;enable-background:accumulate" />
    </g>
    <path
       d="M 7.125,1 L 11.375,179.53125 C 11.514564,185.39339 12.113774,190.95811 13.125,196.28125 C 86.286936,158.26677 113.25048,82.253296 123.90625,1 L 7.125,1 z M 124.15625,1 C 134.81172,82.252633 161.74849,158.26637 234.90625,196.28125 C 235.91748,190.95811 236.51669,185.39339 236.65625,179.53125 L 240.90625,1 L 124.15625,1 z"
       transform="translate(0,804.33069)"
       id="path3811"
       style="fill:#de4221;fill-opacity:1;fill-rule:evenodd;stroke:#000000;stroke-width:1px;stroke-linecap:butt;stroke-linejoin:miter;stroke-opacity:1" />
    <path
       d=""
       transform="translate(0,804.33069)"
       id="path3173"
       style="opacity:1;color:#000000;fill:#000000;fill-opacity:1;fill-rule:evenodd;stroke:#000000;stroke-width:0.99921262;stroke-linecap:butt;stroke-linejoin:miter;marker:none;marker-start:none;marker-mid:none;marker-end:none;stroke-miterlimit:4;stroke-dasharray:none;stroke-dashoffset:0;stroke-opacity:1;visibility:visible;display:inline;overflow:visible;enable-background:accumulate" />
    <path
       d="M 7.1370082,805.33065 L 11.387136,983.84879 C 14.422929,1111.3618 233.6083,1111.3618 236.64411,983.84879 L 240.89424,805.33065 L 7.1370082,805.33065 z"
       id="path3337"
       style="fill:none;fill-opacity:1;fill-rule:evenodd;stroke:#000000;stroke-width:2;stroke-linecap:butt;stroke-miterlimit:4;stroke-dashoffset:0;stroke-opacity:1" />
  </g>
</svg>

<svg xmlns="http://www.w3.org/2000/svg" version="1.0" width="235.757" height="276.153"><path d="m7.137 805.33 4.25 178.519c3.036 127.513 222.221 127.513 225.257 0l4.25-178.518H7.137z" style="fill:#fff;fill-opacity:1;fill-rule:evenodd;stroke:none;stroke-width:2;stroke-linecap:butt;stroke-miterlimit:4;stroke-dashoffset:0;stroke-opacity:1" transform="translate(-6.137 -804.33)"/><path d="m122.859 14.453 16.144 44.609 47.414 1.569-37.437 29.138 13.16 45.579-39.281-26.6-39.281 26.6 13.16-45.579L59.3 60.631l47.414-1.57 16.144-44.608z" transform="matrix(.93496 0 0 .93496 3.01 123.345)" style="fill:#1b7c2b;fill-opacity:1;fill-rule:evenodd;stroke:#000;stroke-width:1.06871843;stroke-linecap:butt;stroke-linejoin:round;stroke-miterlimit:4;stroke-dasharray:none;stroke-opacity:1"/><path d="M116.4 1009.12c-4.225-3.041-18.969 3.823-19.121 10.988-.15 7.07-16.048 10.53-21.105-12.268-5.077-22.89 13.664-25.971 21.78-18.238 8.165 7.779 11.024 3.716 11.446 2.692.383-.93-1.218-9.7-10.434-9.296-9.21.404-20.984-12.891-4.033-26.272 16.786-13.25 26.163-3.814 26.79 3.12.626 6.945-2.305 20.36 3.046 20.134 5.256-.223 5.71-9.515 5.52-20.543-.188-10.932 12.817-10.683 22.335-3.911 9.582 6.818 14.238 15.187 8.573 21.346-5.62 6.112-23.926 8.201-21.433 13.913 2.478 5.678 16.39-1.655 22.981-3.538 6.681-1.909 14.679 6.32 9.6 23.588-5.053 17.179-16.617 16.012-20.392 12.806-3.729-3.167-11.978-18.564-16.825-14.473-4.95 4.178 9.039 17.44 9.965 20.268.955 2.915.026 16.143-21.799 14.453-21.722-1.681-19.308-14.315-17.445-17.232 1.836-2.875 15.081-14.275 10.551-17.537z" style="color:#000;fill:#de4221;fill-opacity:1;fill-rule:evenodd;stroke:#000;stroke-width:.90776211px;stroke-linecap:butt;stroke-linejoin:miter;marker:none;marker-start:none;marker-mid:none;marker-end:none;stroke-miterlimit:4;stroke-dashoffset:0;stroke-opacity:1;visibility:visible;display:inline;overflow:visible;enable-background:accumulate" transform="translate(-20.163 -896.74) scale(1.10161)"/><path d="M114.51 1010.816c-4.197-3.315-5.126 9.864-14.041 12.713-15.141 4.84-14.016-13.668-13.724-15.334.275-1.575-13.77-17.673-1.128-22.744 9.843-3.948 19.181 10.12 21.414 4.897 2.217-5.188-12.339-3.876-16.76-9.967-9.052-12.468 9.476-17.708 11.207-17.55 1.833.168 11.21-13.686 19.6-7.135 8.543 6.671-2.972 22.088 3.814 22.338 6.882.254-3.784-14.526 5.425-21.597 9.269-7.117 17.405 7.728 18.596 8.357 1.15.607 18.686 2.996 12.12 14.158-6.61 11.233-22.116 5.509-19.133 11.037 3.023 5.603 16.113-11.436 24.036-2.675 7.97 8.813-3.08 19.177-3.341 20.52-.283 1.456.327 18.735-11.147 16.736-11.38-1.983-10.81-17.235-15.143-13.897-4.38 3.373 12.27 9.275 9.295 21.815-2.953 12.45-20.346 1.83-22.087 3.13-1.694 1.263-16.395 5.832-19.745-4.255-3.322-9.999 14.997-17.185 10.742-20.547z" style="color:#000;fill:#de4221;fill-opacity:1;fill-rule:evenodd;stroke:#000;stroke-width:.90704733;stroke-linecap:butt;stroke-linejoin:miter;marker:none;marker-start:none;marker-mid:none;marker-end:none;stroke-miterlimit:4;stroke-dasharray:none;stroke-dashoffset:0;stroke-opacity:1;visibility:visible;display:inline;overflow:visible;enable-background:accumulate" transform="translate(-20.163 -896.74) scale(1.10161)"/><path d="m123.035 107.199-4.687-19.81-19.626 2.145 17.393-10.58-8.106-18.002 15.436 13.273 14.617-13.273-7.853 18.782 17.14 9.8-20.29-1.664-4.024 19.329z" transform="matrix(.93487 0 0 .93487 2.578 124.868)" style="fill:#000;fill-opacity:1;fill-rule:evenodd;stroke:none;stroke-width:1.17835865pt;stroke-linecap:butt;stroke-linejoin:round;stroke-opacity:1"/><path d="M138.723 82.516a13.925 13.925 0 1 1-27.85 0 13.925 13.925 0 1 1 27.85 0z" transform="matrix(1.09575 0 0 1.0957 -18.931 110.02)" style="opacity:1;color:#000;fill:#f7de31;fill-opacity:1;fill-rule:evenodd;stroke:#000;stroke-width:.91263523pt;stroke-linecap:butt;stroke-linejoin:miter;marker:none;marker-start:none;marker-mid:none;marker-end:none;stroke-miterlimit:4;stroke-dasharray:none;stroke-dashoffset:0;stroke-opacity:1;visibility:visible;display:inline;overflow:visible;enable-background:accumulate"/><path d="m7.125 1 4.25 178.531c.14 5.862.739 11.427 1.75 16.75C86.287 158.267 113.25 82.253 123.906 1H7.125zm117.031 0c10.656 81.253 37.592 157.266 110.75 195.281 1.011-5.323 1.61-10.888 1.75-16.75L240.906 1h-116.75z" transform="translate(-6.137)" style="fill:#de4221;fill-opacity:1;fill-rule:evenodd;stroke:#000;stroke-width:1px;stroke-linecap:butt;stroke-linejoin:miter;stroke-opacity:1"/><path d="m7.137 805.33 4.25 178.519c3.036 127.513 222.221 127.513 225.257 0l4.25-178.518H7.137z" style="fill:none;fill-opacity:1;fill-rule:evenodd;stroke:#000;stroke-width:2;stroke-linecap:butt;stroke-miterlimit:4;stroke-dashoffset:0;stroke-opacity:1" transform="translate(-6.137 -804.33)"/></svg>
